carriers/postUs.svg

<svg width="128" height="64" viewBox="0 0 128 64" fill="none" xmlns="http://www.w3.org/2000/svg">
<rect width="128" height="64" rx="6" fill="white"/>
<path d="M35.668 21.7859H6.808V21.8819C6.808 21.8819 23.772 25.3659 24.108 25.4259C28.008 26.1139 27.884 26.8659 27.884 26.8659C30.616 26.8659 30.952 26.9619 31.432 27.3579C32.868 28.5579 30.532 32.0939 30.532 32.0939C30.196 32.3419 4.96 42.0939 4.96 42.0939H31.36L35.664 21.7899L35.668 21.7859ZM41.2 21.7859L40.104 26.9459C39.704 28.7299 40.904 29.5379 42.904 29.5379C44.904 29.5379 46.44 28.7379 46.824 26.9459L47.94 21.7859H46.256C46.256 21.7859 45.408 25.7579 45.26 26.4379C45.008 27.6379 44.38 28.3379 43.148 28.3379C41.916 28.3379 41.6 27.6179 41.864 26.4379C41.832 26.5539 42.864 21.7859 42.864 21.7859H41.2ZM49.56 21.7859L47.96 29.3859H49.448L50.624 23.7379H50.66L52.54 29.3859H54.652L56.252 21.7859H54.764L53.564 27.5019L51.756 21.7859H49.56ZM57.86 21.7859L56.26 29.3859H57.936L59.536 21.7859H57.86ZM60.66 21.7859L60.392 22.9859H62.76L61.4 29.3859H63.1L64.456 22.9859H66.824L67.08 21.7859H60.66ZM68.188 21.7859L66.56 29.3859H72.08L72.336 28.1859H68.504L68.94 26.1059H72.3L72.54 24.9779H69.2L69.624 22.9779H73.456L73.708 21.7779L68.188 21.7859ZM74.916 21.7859L73.316 29.3859H76.756C78.88 29.3859 80.916 27.9859 81.376 25.2499C81.704 23.3059 80.928 21.7739 78.624 21.7739L74.916 21.7859ZM87.536 21.7859C85.564 21.7859 84.584 22.4899 84.436 23.5819C84.192 25.4059 87.42 26.4899 87.176 27.5819C87.028 28.2219 86.24 28.1899 85.604 28.1899H83.54L83.284 29.3899H85.852C87.956 29.3899 88.868 28.6339 89.052 27.5939C89.36 25.7259 86.08 24.7579 86.336 23.5499C86.42 23.1779 86.832 22.9859 87.748 22.9859H89.54L89.804 21.7859H87.536ZM90.648 21.7859L90.384 22.9859H92.752L91.392 29.3859H93.068L94.428 22.9859H96.796L97.052 21.7859H90.648ZM98.828 21.7859L94.464 29.3859H96.144L99.5 23.2979L100.168 28.1899H97.768L97.112 29.3899H102.032L100.832 21.7899L98.828 21.7859ZM102.688 21.7859L102.42 22.9859H104.788L103.428 29.3859H105.1L106.456 22.9859H108.824L109.08 21.7859H102.688ZM110.204 21.7859L108.58 29.3859H114.1L114.356 28.1859H110.52L110.956 26.1059H114.3L114.544 24.9779H111.204L111.628 22.9779H115.46L115.712 21.7779H110.208L110.204 21.7859ZM119.404 21.7859C117.428 21.7859 116.452 22.4899 116.304 23.5819C116.06 25.4059 119.288 26.4899 119.044 27.5819C118.892 28.2219 118.108 28.1899 117.472 28.1899H115.4L115.148 29.3899H117.716C119.816 29.3899 120.732 28.6339 120.916 27.5939C121.224 25.7259 117.944 24.7579 118.2 23.5499C118.284 23.1779 118.7 22.9859 119.612 22.9859H121.4L121.672 21.7859H119.404ZM76.352 22.9859H78.06C79.452 22.9859 79.948 24.0179 79.736 25.2259C79.44 26.9379 78.348 28.1779 76.448 28.1779H75.248L76.352 22.9859ZM20.672 26.4819H5.812L2.5 42.0819C2.5 42.0819 12.652 37.1139 13.9 36.4819C16.9047 34.8915 20.0147 33.5083 23.208 32.3419C24.7834 31.8214 26.3858 31.3861 28.008 31.0379C28.608 30.9299 28.86 30.8299 28.852 30.7179C28.852 30.3979 28.228 30.3779 27.208 30.4259C24.096 30.5739 18.132 32.9459 16.408 33.8539L14.468 27.8539H26.868C27.268 26.6859 22.952 26.5179 20.66 26.4979L20.672 26.4819ZM27.236 27.9419C27.144 27.9419 27.068 28.0019 26.964 28.1419C26.863 28.2866 26.7248 28.4013 26.564 28.4739C25.9645 28.6621 25.3435 28.7737 24.716 28.8059C24.264 28.8419 24.144 28.8899 24.136 29.0619C24.128 29.2339 24.204 29.3059 24.848 29.3059C26.332 29.3059 29 28.7459 29.804 29.0019C30.228 29.1379 29.888 29.8939 29.54 30.8899C29.404 31.2899 29.668 31.2459 29.824 31.0779C30.2504 30.4425 30.5618 29.7371 30.744 28.9939C30.852 28.0779 30.064 27.9419 28.98 27.9419H27.236ZM49.176 34.3419C46.82 34.3419 44.856 35.5699 44.28 38.2779C43.828 40.4419 45.144 42.2259 47.48 42.2259C49.816 42.2259 51.768 41.0499 52.364 38.2779C52.86 36.0179 51.5 34.3419 49.176 34.3419ZM116.376 34.3419C114.04 34.3419 111.792 35.5419 111.22 38.2779C110.648 41.0139 112.364 42.2259 114.704 42.2259C115.334 42.2182 115.963 42.162 116.584 42.0579L116.984 40.7499C116.318 40.9247 115.633 41.0148 114.944 41.0179C113.424 41.0179 112.568 39.9979 112.944 38.2779C113.32 36.5579 114.584 35.5419 116.1 35.5419C116.704 35.5331 117.305 35.6153 117.884 35.7859L118.032 34.5019C117.482 34.3981 116.924 34.3419 116.364 34.3339L116.376 34.3419ZM56.488 34.4779C54.512 34.4779 53.532 35.1779 53.384 36.2739C53.14 38.0979 56.368 39.1819 56.124 40.2739C55.976 40.9099 55.188 40.8779 54.552 40.8779H52.484L52.228 42.0779H54.796C56.9 42.0779 57.812 41.3219 57.996 40.2819C58.304 38.4139 55.024 37.4499 55.28 36.2379C55.364 35.8659 55.78 35.6779 56.696 35.6779H58.484L58.752 34.4779H56.488ZM59.596 34.4779L59.332 35.6779H61.7L60.34 42.0779H62.016L63.376 35.6779H65.744L65.996 34.4779H59.596ZM84.096 34.4779C82.12 34.4779 81.144 35.1779 80.996 36.2739C80.752 38.0979 83.976 39.1819 83.736 40.2739C83.588 40.9099 82.8 40.8779 82.164 40.8779H80.096L79.84 42.0779H82.408C84.508 42.0779 85.424 41.3219 85.608 40.2819C85.916 38.4139 82.64 37.4499 82.888 36.2379C82.976 35.8659 83.392 35.6779 84.304 35.6779H86.096L86.36 34.4779H84.096ZM87.8 34.4779L86.176 42.0779H91.696L91.948 40.8779H88.116L88.552 38.7979H91.9L92.144 37.6699H88.8L89.224 35.6899H93.056L93.312 34.4899L87.8 34.4779ZM94.524 34.4779L92.924 42.0779H94.6L95.96 35.6779H97.464C98.4 35.6779 98.484 36.1979 98.388 36.6739C98.208 37.5779 97.424 37.9379 96.564 37.9379C96.351 37.9539 96.137 37.9539 95.924 37.9379L97.308 42.1099H99.144L97.9 38.8259C98.4922 38.7581 99.0395 38.4771 99.4398 38.0356C99.8402 37.594 100.066 37.0219 100.076 36.4259C100.176 35.1539 99.58 34.4859 98.096 34.4859L94.524 34.4779ZM119.4 34.4779L117.78 42.0779H123.3L123.552 40.8779H119.724L120.156 38.7979H123.5L123.744 37.6699H120.4L120.828 35.6899H124.656L124.912 34.4899L119.4 34.4779ZM38.52 34.4779L36.92 42.0779H38.596L39.956 35.6779H41.324C41.94 35.6779 42.364 35.9819 42.184 36.8099C42.1056 37.1827 41.8944 37.5144 41.5898 37.7432C41.2852 37.972 40.9079 38.0824 40.528 38.0539C40.276 38.0539 40 38.0219 39.788 38.0019L39.872 39.1059C40.116 39.1059 40.404 39.1659 40.672 39.1659C42.18 39.1659 43.504 38.2979 43.816 36.8539C44.016 35.8979 43.816 34.4539 42.18 34.4539L38.52 34.4779ZM67.788 34.4779L63.428 42.0779H65.1L68.444 35.9739L69.1 40.8779H66.7L66.04 42.0779H70.964L69.764 34.4779H67.788ZM73.472 34.4779L71.872 42.0779H77.02L77.284 40.8779H73.816L75.172 34.4779H73.472ZM100.944 34.4779L102.092 42.0779H104.072L108.408 34.4779H106.748L103.396 40.5819L102.596 34.4779H100.944ZM109.416 34.4779L107.816 42.0779H109.5L111.1 34.4779H109.416ZM48.912 35.5419C50.46 35.5419 50.98 36.7419 50.652 38.2699C50.288 39.9899 49.272 41.0099 47.752 41.0099C46.232 41.0099 45.66 39.7459 45.988 38.2699C46.388 36.5499 47.392 35.5419 48.912 35.5419Z" fill="#15569C"/>
<path d="M39.0999 31.6577L38.9839 32.2217H125.384L125.5 31.6577H39.0999Z" fill="#ED192D"/>
</svg>

<svg xmlns="http://www.w3.org/2000/svg" width="128" height="64" fill="none"><rect width="128" height="64" fill="#fff" rx="6"/><path fill="#15569C" d="M35.668 21.786H6.808v.096s16.964 3.484 17.3 3.544c3.9.688 3.776 1.44 3.776 1.44 2.732 0 3.068.096 3.548.492 1.436 1.2-.9 4.736-.9 4.736-.336.248-25.572 10-25.572 10h26.4l4.304-20.304.004-.004Zm5.532 0-1.096 5.16c-.4 1.784.8 2.592 2.8 2.592 2 0 3.536-.8 3.92-2.592l1.116-5.16h-1.684s-.848 3.972-.996 4.652c-.252 1.2-.88 1.9-2.112 1.9-1.232 0-1.548-.72-1.284-1.9-.032.116 1-4.652 1-4.652H41.2Zm8.36 0-1.6 7.6h1.488l1.176-5.648h.036l1.88 5.648h2.112l1.6-7.6h-1.488l-1.2 5.716-1.808-5.716H49.56Zm8.3 0-1.6 7.6h1.676l1.6-7.6H57.86Zm2.8 0-.268 1.2h2.368l-1.36 6.4h1.7l1.356-6.4h2.368l.256-1.2h-6.42Zm7.528 0-1.628 7.6h5.52l.256-1.2h-3.832l.436-2.08h3.36l.24-1.128H69.2l.424-2h3.832l.252-1.2-5.52.008Zm6.728 0-1.6 7.6h3.44c2.124 0 4.16-1.4 4.62-4.136.328-1.944-.448-3.476-2.752-3.476l-3.708.012Zm12.62 0c-1.972 0-2.952.704-3.1 1.796-.244 1.824 2.984 2.908 2.74 4-.148.64-.936.608-1.572.608H83.54l-.256 1.2h2.568c2.104 0 3.016-.756 3.2-1.796.308-1.868-2.972-2.836-2.716-4.044.084-.372.496-.564 1.412-.564h1.792l.264-1.2h-2.268Zm3.112 0-.264 1.2h2.368l-1.36 6.4h1.676l1.36-6.4h2.368l.256-1.2h-6.404Zm8.18 0-4.364 7.6h1.68l3.356-6.088.668 4.892h-2.4l-.656 1.2h4.92l-1.2-7.6-2.004-.004Zm3.86 0-.268 1.2h2.368l-1.36 6.4h1.672l1.356-6.4h2.368l.256-1.2h-6.392Zm7.516 0-1.624 7.6h5.52l.256-1.2h-3.836l.436-2.08h3.344l.244-1.128h-3.34l.424-2h3.832l.252-1.2h-5.504l-.004.008Zm9.2 0c-1.976 0-2.952.704-3.1 1.796-.244 1.824 2.984 2.908 2.74 4-.152.64-.936.608-1.572.608H115.4l-.252 1.2h2.568c2.1 0 3.016-.756 3.2-1.796.308-1.868-2.972-2.836-2.716-4.044.084-.372.5-.564 1.412-.564h1.788l.272-1.2h-2.268Zm-43.052 1.2h1.708c1.392 0 1.888 1.032 1.676 2.24-.296 1.712-1.388 2.952-3.288 2.952h-1.2l1.104-5.192Zm-55.68 3.496H5.812L2.5 42.082s10.152-4.968 11.4-5.6a74.632 74.632 0 0 1 9.308-4.14 46.223 46.223 0 0 1 4.8-1.304c.6-.108.852-.208.844-.32 0-.32-.624-.34-1.644-.292-3.112.148-9.076 2.52-10.8 3.428l-1.94-6h12.4c.4-1.168-3.916-1.336-6.208-1.356l.012-.016Zm6.564 1.46c-.092 0-.168.06-.272.2a.98.98 0 0 1-.4.332c-.6.188-1.22.3-1.848.332-.452.036-.572.084-.58.256-.008.172.068.244.712.244 1.484 0 4.152-.56 4.956-.304.424.136.084.892-.264 1.888-.136.4.128.356.284.188a6.53 6.53 0 0 0 .92-2.084c.108-.916-.68-1.052-1.764-1.052h-1.744Zm21.94 6.4c-2.356 0-4.32 1.228-4.896 3.936-.452 2.164.864 3.948 3.2 3.948 2.336 0 4.288-1.176 4.884-3.948.496-2.26-.864-3.936-3.188-3.936Zm67.2 0c-2.336 0-4.584 1.2-5.156 3.936-.572 2.736 1.144 3.948 3.484 3.948.63-.008 1.259-.064 1.88-.168l.4-1.308a8.178 8.178 0 0 1-2.04.268c-1.52 0-2.376-1.02-2-2.74.376-1.72 1.64-2.736 3.156-2.736a6 6 0 0 1 1.784.244l.148-1.284a9.744 9.744 0 0 0-1.668-.168l.012.008Zm-59.888.136c-1.976 0-2.956.7-3.104 1.796-.244 1.824 2.984 2.908 2.74 4-.148.636-.936.604-1.572.604h-2.068l-.256 1.2h2.568c2.104 0 3.016-.756 3.2-1.796.308-1.868-2.972-2.832-2.716-4.044.084-.372.5-.56 1.416-.56h1.788l.268-1.2h-2.264Zm3.108 0-.264 1.2H61.7l-1.36 6.4h1.676l1.36-6.4h2.368l.252-1.2h-6.4Zm24.5 0c-1.976 0-2.952.7-3.1 1.796-.244 1.824 2.98 2.908 2.74 4-.148.636-.936.604-1.572.604h-2.068l-.256 1.2h2.568c2.1 0 3.016-.756 3.2-1.796.308-1.868-2.968-2.832-2.72-4.044.088-.372.504-.56 1.416-.56h1.792l.264-1.2h-2.264Zm3.704 0-1.624 7.6h5.52l.252-1.2h-3.832l.436-2.08H91.9l.244-1.128H88.8l.424-1.98h3.832l.256-1.2-5.512-.012Zm6.724 0-1.6 7.6H94.6l1.36-6.4h1.504c.936 0 1.02.52.924.996-.18.904-.964 1.264-1.824 1.264a4.273 4.273 0 0 1-.64 0l1.384 4.172h1.836L97.9 38.826a2.456 2.456 0 0 0 2.176-2.4c.1-1.272-.496-1.94-1.98-1.94l-3.572-.008Zm24.876 0-1.62 7.6h5.52l.252-1.2h-3.828l.432-2.08h3.344l.244-1.128H120.4l.428-1.98h3.828l.256-1.2-5.512-.012Zm-80.88 0-1.6 7.6h1.676l1.36-6.4h1.368c.616 0 1.04.304.86 1.132a1.572 1.572 0 0 1-1.656 1.244c-.252 0-.528-.032-.74-.052l.084 1.104c.244 0 .532.06.8.06 1.508 0 2.832-.868 3.144-2.312.2-.956 0-2.4-1.636-2.4l-3.66.024Zm29.268 0-4.36 7.6H65.1l3.344-6.104.656 4.904h-2.4l-.66 1.2h4.924l-1.2-7.6h-1.976Zm5.684 0-1.6 7.6h5.148l.264-1.2h-3.468l1.356-6.4h-1.7Zm27.472 0 1.148 7.6h1.98l4.336-7.6h-1.66l-3.352 6.104-.8-6.104h-1.652Zm8.472 0-1.6 7.6h1.684l1.6-7.6h-1.684Zm-60.504 1.064c1.548 0 2.068 1.2 1.74 2.728-.364 1.72-1.38 2.74-2.9 2.74s-2.092-1.264-1.764-2.74c.4-1.72 1.404-2.728 2.924-2.728Z"/><path fill="#ED192D" d="m39.1 31.658-.116.564h86.4l.116-.564H39.1Z"/></svg>
